Yosa-Max/actions/22x22/tab-new.svg

<?xml version="1.0" encoding="UTF-8"?>
<svg id="svg4359" version="1.1" viewBox="0 0 22 22" xmlns="http://www.w3.org/2000/svg">
 <defs id="defs4361">
  <style id="current-color-scheme" type="text/css">.ColorScheme-Text {
        color:#4d4d4d;
      }</style>
  <style id="current-color-scheme-5" type="text/css">.ColorScheme-Text {
        color:#4d4d4d;
      }</style>
 </defs>
 <path id="rect848" d="m2 3v8h2v-6h6v3h8v3h2v-8h-18zm8 8v3h-3v2h3v3h2v-3h3v-2h-3v-3h-2z" style="fill:#4d4d4d"/>
</svg>

<?xml version="1.0" encoding="UTF-8" standalone="no"?>
<svg
   xmlns:dc="http://purl.org/dc/elements/1.1/"
   xmlns:cc="http://creativecommons.org/ns#"
   xmlns:rdf="http://www.w3.org/1999/02/22-rdf-syntax-ns#"
   xmlns:svg="http://www.w3.org/2000/svg"
   xmlns="http://www.w3.org/2000/svg"
   width="22"
   height="22"
   id="svg4359"
   version="1.1">
  <defs
     id="defs4361">
    <style
       id="current-color-scheme"
       type="text/css">
      .ColorScheme-Text {
        color:#4d4d4d;
      }
      </style>
    <style
       type="text/css"
       id="current-color-scheme-5">
      .ColorScheme-Text {
        color:#4d4d4d;
      }
      </style>
  </defs>
  <metadata
     id="metadata4364">
    <rdf:RDF>
      <cc:Work
         rdf:about="">
        <dc:format>image/svg+xml</dc:format>
        <dc:type
           rdf:resource="http://purl.org/dc/dcmitype/StillImage" />
        <dc:title></dc:title>
      </cc:Work>
    </rdf:RDF>
  </metadata>
  <path
     id="rect848"
     d="M 2 3 L 2 5 L 2 11 L 4 11 L 4 5 L 10 5 L 10 8 L 18 8 L 18 11 L 20 11 L 20 8 L 20 7 L 20 5 L 20 3 L 2 3 z M 10 11 L 10 14 L 7 14 L 7 16 L 10 16 L 10 19 L 12 19 L 12 16 L 15 16 L 15 14 L 12 14 L 12 11 L 10 11 z "
     style="opacity:1;vector-effect:none;fill:#4d4d4d;fill-opacity:1;stroke:none;stroke-width:0.49000001;stroke-linecap:butt;stroke-linejoin:miter;stroke-miterlimit:4;stroke-dasharray:none;stroke-dashoffset:0;stroke-opacity:1" />
</svg>
